src/16/panel/wire-tray-attention.svg

<svg xmlns="http://www.w3.org/2000/svg" width="16" height="16" version="1">
 <defs>
  <style id="current-color-scheme" type="text/css">
   .ColorScheme-Text { color:#dfdfdf; } .ColorScheme-Highlight { color:#4285f4; }
  </style>
 </defs>
 <path style="fill:currentColor" class="ColorScheme-Text" d="M 7,1 C 3.134,1 0,4.134 0,8 0,11.866 3.134,15 7,15 10.866,15 14,11.866 14,8 14,4.134 10.866,1 7,1 Z M 2,4.9997 H 3 V 9.4121 C 3,9.4121 2.9984,9.7701 3.2812,10.164 3.5641,10.558 4.116,11 5.5,11 5.6058,11 5.6363,10.964 5.7324,10.959 5.6611,10.882 5.5255,10.827 5.4687,10.748 5.0015,10.098 5,9.4121 5,9.4121 V 6.0719 L 5.0039,6.0426 C 5.0039,6.0426 5.0278,5.898 5.0879,5.779 5.148,5.66 5.251,5.5204 5.4082,5.3981 5.7225,5.1536 6.2228,4.9884 7.0078,4.9997 7.7878,5.0109 8.274,5.1744 8.584,5.4079 8.739,5.5246 8.8433,5.6589 8.9063,5.7751 8.9683,5.8913 8.9961,6.0368 8.9961,6.0368 L 9,6.07 V 9.4121 C 9,9.4121 8.9983,10.098 8.5312,10.748 8.4742,10.827 8.3386,10.882 8.2676,10.959 8.3636,10.964 8.394,11 8.5,11 9.884,11 10.436,10.558 10.719,10.164 11.002,9.7701 11,9.4121 11,9.4121 V 4.9997 H 12 V 9.4121 C 12,9.4121 11.998,10.098 11.531,10.748 11.064,11.398 10.116,12 8.5,12 7.878,12 7.435,11.852 7,11.705 6.565,11.852 6.1219,12 5.5,12 3.8839,12 2.9358,11.398 2.4687,10.748 2.0015,10.098 2,9.4121 2,9.4121 Z M 6.9922,5.9997 C 6.3532,5.9905 6.1034,6.1252 6.0234,6.1872 6.0024,6.2041 6.005,6.2036 6,6.2106 V 9.4121 C 6,9.4121 5.9986,9.7701 6.2812,10.164 6.4253,10.364 6.645,10.574 7,10.734 7.355,10.574 7.5747,10.364 7.7187,10.164 8.0017,9.7701 8,9.4121 8,9.4121 V 6.2223 C 7.993,6.2157 8.0004,6.2205 7.9844,6.2087 7.9014,6.1461 7.6362,6.0089 6.9922,5.9997 Z"/>
 <circle style="fill:currentColor" class="ColorScheme-Highlight" cx="14.5" cy="13.5" r="1.5"/>
</svg>

<svg xmlns="http://www.w3.org/2000/svg" width="16" height="16" version="1"><path d="M7 1a7 7 0 1 0 0 14A7 7 0 0 0 7 1zM2 5h1v4.412s-.002.358.281.752c.283.394.835.836 2.219.836.106 0 .136-.036.232-.041-.07-.077-.207-.132-.263-.211C5 10.098 5 9.412 5 9.412v-3.34l.004-.03s.024-.144.084-.263c.06-.119.163-.259.32-.38.314-.245.815-.41 1.6-.4.78.012 1.266.175 1.576.409.155.117.26.25.322.367.062.116.09.262.09.262L9 6.07v3.342s-.002.686-.469 1.336c-.057.079-.192.134-.263.211.096.005.126.041.232.041 1.384 0 1.936-.442 2.219-.836.283-.394.281-.752.281-.752V5h1v4.412s-.002.686-.469 1.336C11.064 11.398 10.116 12 8.5 12c-.622 0-1.065-.148-1.5-.295-.435.147-.878.295-1.5.295-1.616 0-2.564-.602-3.031-1.252C2.002 10.098 2 9.412 2 9.412zm4.992 1c-.639-.01-.889.125-.969.187-.02.017-.018.017-.023.024v3.201s-.001.358.281.752c.144.2.364.41.719.57.355-.16.575-.37.719-.57.283-.394.281-.752.281-.752v-3.19c-.007-.006 0-.002-.016-.013-.083-.063-.348-.2-.992-.21z" fill="currentColor" color="#bebebe"/><circle cx="14.5" cy="13.5" r="1.5" fill="currentColor" color="#5294e2"/></svg>
